X: 4
T: The Crock Of Gold
R: reel
M: 4/4
L: 1/8
K: Amaj
|: c3e cBAF | A3B AFEA | EFAB cBAB | c2ec cBB2 |
c2Be cBAF | A3B AFE2 | a2ga faec | EFAB cAA2 :|
|: fbb2 fbaf | b2fb afef | afec ABce | f/g/aec cBB2 |
fbb2 fbaf | b2fb afef | a2ga faec | EFAB cAA2 :|


Tune 433	Setting 433

